assets/img/plunks/plunk-rso-h-4.svg

<svg width="60" height="60" viewBox="0 0 60 60" fill="none" xmlns="http://www.w3.org/2000/svg">
<path d="M32.3201 34.7344L20.4139 12.2578C20.2557 11.9531 20.0168 11.6977 19.7234 11.5194C19.4299 11.3411 19.0932 11.2468 18.7498 11.2468C18.4065 11.2468 18.0697 11.3411 17.7763 11.5194C17.4828 11.6977 17.244 11.9531 17.0858 12.2578L5.17952 34.7344L0.210765 44.1328C-0.0133471 44.5752 -0.0554452 45.0878 0.0934757 45.5608C0.242397 46.0338 0.570512 46.4298 1.00764 46.6641C1.45004 46.8882 1.96258 46.9303 2.43562 46.7814C2.90867 46.6324 3.30466 46.3043 3.53889 45.8672L7.96858 37.5H29.5311L33.9608 45.8672C34.1173 46.173 34.3559 46.4293 34.6498 46.6073C34.9436 46.7852 35.2813 46.8779 35.6248 46.875C35.9473 46.8753 36.2644 46.7924 36.5455 46.6343C36.8266 46.4763 37.0621 46.2484 37.2294 45.9727C37.3967 45.697 37.4901 45.3829 37.5005 45.0606C37.5109 44.7383 37.438 44.4187 37.2889 44.1328L32.3201 34.7344ZM9.96077 33.75L18.7498 17.1328L27.5389 33.75H9.96077ZM48.7498 22.2422C46.1638 22.217 43.6718 23.2104 41.8123 25.0078C41.6228 25.1768 41.4696 25.3824 41.362 25.6123C41.2543 25.8423 41.1945 26.0916 41.1861 26.3454C41.1777 26.5991 41.2209 26.8519 41.3131 27.0884C41.4054 27.325 41.5446 27.5403 41.7226 27.7214C41.9005 27.9025 42.1133 28.0456 42.3482 28.142C42.5831 28.2384 42.835 28.286 43.0889 28.2821C43.3427 28.2782 43.5931 28.2228 43.8249 28.1193C44.0567 28.0157 44.2651 27.8662 44.4373 27.6797C45.5968 26.5716 47.1463 25.9653 48.7498 25.9922C51.8436 25.9922 54.3748 28.1016 54.3748 30.6797V32.3672C52.7089 31.2588 50.7508 30.6713 48.7498 30.6797C43.5701 30.6797 39.3748 34.4531 39.3748 39.1172C39.3748 43.7812 43.5701 47.5547 48.7498 47.5547C50.8193 47.5632 52.8409 46.933 54.5389 45.75C54.6818 46.085 54.9204 46.3704 55.2247 46.5705C55.529 46.7706 55.8856 46.8765 56.2498 46.875C56.7471 46.875 57.224 46.6775 57.5757 46.3258C57.9273 45.9742 58.1248 45.4973 58.1248 45V30.6797C58.1248 26.0156 53.9295 22.2422 48.7498 22.2422ZM48.7498 43.8047C45.6561 43.8047 43.1248 41.6953 43.1248 39.1172C43.1248 36.5391 45.6561 34.4297 48.7498 34.4297C51.8436 34.4297 54.3748 36.5391 54.3748 39.1172C54.3748 41.6953 51.8436 43.8047 48.7498 43.8047Z" fill="#00A0E3"/>
</svg>

<svg width="60" height="60" fill="none" xmlns="http://www.w3.org/2000/svg"><path d="M32.32 34.734L20.414 12.258a1.875 1.875 0 00-3.328 0L5.18 34.734.21 44.133a1.898 1.898 0 00.798 2.531 1.899 1.899 0 002.53-.797l4.43-8.367h21.563l4.43 8.367a1.851 1.851 0 001.664 1.008 1.875 1.875 0 001.664-2.742l-4.969-9.399zM9.96 33.75l8.79-16.617 8.789 16.617H9.96zm38.79-11.508a9.844 9.844 0 00-6.938 2.766 1.875 1.875 0 102.625 2.672 6.094 6.094 0 014.313-1.688c3.094 0 5.625 2.11 5.625 4.688v1.687a10.078 10.078 0 00-5.625-1.687c-5.18 0-9.375 3.773-9.375 8.437s4.195 8.438 9.375 8.438a10.06 10.06 0 005.789-1.805 1.852 1.852 0 001.71 1.125A1.875 1.875 0 0058.126 45V30.68c0-4.664-4.196-8.438-9.375-8.438zm0 21.563c-3.094 0-5.625-2.11-5.625-4.688s2.531-4.687 5.625-4.687 5.625 2.11 5.625 4.687c0 2.578-2.531 4.688-5.625 4.688z" fill="#00A0E3"/></svg>
